src/content/ce-tiles.svg

<svg width="36" height="36" viewBox="0 0 36 36" xmlns="http://www.w3.org/2000/svg">
  <g fill="none" fill-rule="nonzero">
    <path fill="#FFF" d="M2 2h32v32H2z"/>
    <path fill="#999" d="M2 2v32h32V2H2zm2 2h28v28H4V4z"/>
    <path fill="#666" d="M6 7h24v3H6z"/>
    <path fill="#999" d="M17 22v8H6v-8h11zm0-10v8H6v-8h11zm13 0v8H19v-8h11z"/>
    <path fill="#FF8700" d="M19 22h11v8H19z"/>
  </g>
</svg>

<?xml version="1.0" encoding="UTF-8"?>
<svg width="36px" height="36px" viewBox="0 0 36 36" version="1.1" xmlns="http://www.w3.org/2000/svg" xmlns:xlink="http://www.w3.org/1999/xlink">
    <title>ce-tiles</title>
    <g id="ce-tiles" stroke="none" stroke-width="1" fill="none" fill-rule="evenodd">
        <polygon id="Path" fill="#FFFFFF" fill-rule="nonzero" points="2 2 34 2 34 34 2 34"></polygon>
        <path d="M2,2 L2,34 L34,34 L34,2 L2,2 L2,2 Z M4,4 L32,4 L32,32 L4,32 L4,4 L4,4 Z" id="Shape" fill="#999999" fill-rule="nonzero"></path>
        <polygon id="Path" fill="#666666" fill-rule="nonzero" points="6 7 30 7 30 10 6 10"></polygon>
        <path d="M17,22 L17,30 L6,30 L6,22 L17,22 Z M17,12 L17,20 L6,20 L6,12 L17,12 Z M30,12 L30,20 L19,20 L19,12 L30,12 Z" id="Shape" fill="#999999" fill-rule="nonzero"></path>
        <rect id="Rectangle" fill="#FF8700" fill-rule="nonzero" x="19" y="22" width="11" height="8"></rect>
    </g>
</svg>
